X:1
T:Title
%%score { ( 1 4 ) | ( 2 3 ) }
L:1/8
M:4/4
K:Ab
V:1 treble nm="Grand Piano"
V:4 treble 
V:2 bass 
V:3 bass 
V:1
 z4 z2 z[Q:1/4=100] [CE] | [CE]2 [DF]>[DG] [CA]2 [B,G]>[CA] | B2 A>B c3 c | d2 c>B A2 G>[EA] | %4
 [=DB]2 [DA]>[DF] G2 F>E | [CE]2 [DF]>[DG] [CA]2 [CE]>[CA] | B2 A>B c3 c | e2 [Ec]>B A2 F>[FA] | %8
[M:7/8] E2 A>B [CA]3 |[M:1/8] B |[M:4/4] B2 B>c d2 c>[EB] | [EA]2 F>A E3 A | B2 B>c d2 c>B | %13
 cA F>A E3 E | E2 F>G A2 G>A | B2 c>d c3 c | e2 [Ec]>[EB] [EA]2 [DF]>[FA] |[M:7/8] E2 A>B [CA]3 |] %18
V:2
 z4 z2 z [A,,A,] | [A,,A,]2 [A,,A,]>[A,,A,] [A,,A,]2 [A,,A,]>[A,,A,] | %2
 [E,G,D]2 [F,A,C]>[E,G,D][K:treble] [A,E]3 [A,E] | %3
 [A,F]2[K:bass] [A,E]>[E,G,D] [F,A,C]2 [E,B,E]>[C,A,] | z4 B,2 z2 | %5
 [A,,A,]2 [A,,A,]>[A,,A,] [A,,A,]2 [A,,A,]>[A,,A,] | %6
 [E,G,D]2 [E,F,C]>[E,G,D][K:treble] [A,E]3 [A,E] | %7
 [A,CA]2[K:bass] [A,,A,]>[E,G,D] [F,A,C]2 [D,A,D]>[D,A,] | %8
[M:7/8] [E,A,C]2 [E,A,C]>[E,G,D] [A,,A,]3 |[M:1/8] [E,G,E] | %10
[M:4/4] [E,G,E]2 [E,G,E]>[E,A,E] [E,B,E]2 [E,A,E]>[D,G,] | [C,A,]2 [D,A,D]>[F,A,D] [A,C]3 [A,C] | %12
 [E,G,E]2 [E,G,E]>[E,A,E] [E,B,E]2 [E,A,E]>[E,G,E] | A,2 z2 z4 | %14
 [A,C]2 [A,D]>[A,D] [A,C]2 [A,B,]>[A,C] | [E,G,E]2 [E,A,E]>[E,B,E] [A,E]3 [A,E] | %16
 [A,CE]2 [A,,A,]>[B,,G,] [C,A,]2 [D,A,]>[D,A,] |[M:7/8] [E,A,C]2 [E,A,C]>[E,G,D] [A,,A,]3 |] %18
V:3
 x8 | x8 | x4[K:treble] x4 | x2[K:bass] x6 | [B,,F,]2 [B,,B,]>[B,,B,] [E,D]2- [E,A,D]>[E,G,C] | %5
 x8 | x4[K:treble] x4 | x2[K:bass] x6 |[M:7/8] x7 |[M:1/8] x |[M:4/4] x8 | x8 | x8 | %13
 A,,C, [D,A,D]>[F,A,D] [A,C]3 [A,C] | x8 | x8 | x8 |[M:7/8] x7 |] %18
V:4
 x8 | x8 | x8 | x8 | x8 | x8 | x8 | x8 |[M:7/8] x7 |[M:1/8] x |[M:4/4] x8 | x8 | x8 | E2 z2 z4 | %14
 x8 | x8 | x8 |[M:7/8] x7 |] %18

